svg/calendar_weekend_outline.svg

<svg xmlns="http://www.w3.org/2000/svg" viewBox="0 0 24 24"><path d="M19 4a2 2 0 0 1 2 2v14a2 2 0 0 1-2 2H5a2 2 0 0 1-2-2V6a2 2 0 0 1 2-2h1V2h2v2h8V2h2v2zm0 16V10H5v10zm0-12V6H5v2zM7 12h2v6H7zm8 0h2v6h-2z"/></svg>

<?xml version="1.0" encoding="UTF-8"?><!DOCTYPE svg PUBLIC "-//W3C//DTD SVG 1.1//EN" "http://www.w3.org/Graphics/SVG/1.1/DTD/svg11.dtd"><svg xmlns="http://www.w3.org/2000/svg" xmlns:xlink="http://www.w3.org/1999/xlink" version="1.1" id="mdi-calendar-weekend-outline" width="24" height="24" viewBox="0 0 24 24"><path d="M19,4A2,2 0 0,1 21,6V20A2,2 0 0,1 19,22H5C3.89,22 3,21.1 3,20V6A2,2 0 0,1 5,4H6V2H8V4H16V2H18V4H19M19,20V10H5V20H19M19,8V6H5V8H19M7,12H9V18H7V12M15,12H17V18H15V12Z" /></svg>
